app/assets/images/payment_icons/eft_secure.svg

<?xml version="1.0" encoding="UTF-8"?>
<svg width="38px" height="24px" viewBox="0 0 38 24" aria-labelledby="pi-eft_secure" version="1.1" xmlns="http://www.w3.org/2000/svg" xmlns:xlink="http://www.w3.org/1999/xlink">
    <!-- Generator: Sketch 52.5 (67469) - http://www.bohemiancoding.com/sketch -->
    <title id="pi-eft_secure">EFT Secure</title>
    <desc>Created with Sketch.</desc>
    <defs>
        <polygon id="path-1" points="0 0.259762527 33.8232759 0.259762527 33.8232759 12.0684189 0 12.0684189"></polygon>
    </defs>
    <g id="Page-1" stroke="none" stroke-width="1" fill="none" fill-rule="evenodd">
        <g id="eft-secure">
            <path d="M35,0 L3,0 C1.3,0 0,1.3 0,3 L0,21 C0,22.7 1.4,24 3,24 L35,24 C36.7,24 38,22.7 38,21 L38,3 C38,1.3 36.6,0 35,0 Z" id="Path" fill="#000000" opacity="0.07"></path>
            <path d="M35,1 C36.1,1 37,1.9 37,3 L37,21 C37,22.1 36.1,23 35,23 L3,23 C1.9,23 1,22.1 1,21 L1,3 C1,1.9 1.9,1 3,1 L35,1" id="Path" fill="#FFFFFF"></path>
            <g id="eft_secure" transform="translate(2.000000, 4.000000)">
                <g id="Group-3" transform="translate(0.000000, 0.947197)">
                    <g id="Fill-1-Clipped">
                        <g>
                            <mask id="mask-2" fill="white">
                                <use xlink:href="#path-1"></use>
                            </mask>
                            <g id="path-1"></g>
                            <path d="M9.89763793,4.84677586 L9.39918966,4.84677586 C9.32798276,4.84677586 9.32798276,4.84677586 9.32798276,4.77556897 C9.32436207,4.31332759 9.22056897,3.85832759 9.02505172,3.43953448 C8.5797069,2.41367241 7.65643103,1.67384483 6.55815517,1.46263793 C4.6947069,1.07884483 2.8722931,2.2797069 2.4885,4.14315517 C2.44505172,4.35798276 2.42091379,4.57522414 2.4185,4.79367241 C2.4185,4.79367241 2.4185,4.85522414 2.35574138,4.85522414 L1.34074138,4.85522414 C1.28763793,4.85522414 1.28763793,4.85522414 1.28763793,4.79367241 C1.29367241,4.59091379 1.31177586,4.38936207 1.34074138,4.18781034 C1.42039655,3.65556897 1.59781034,3.14143103 1.86574138,2.67436207 C2.4885,1.5085 3.58677586,0.670913793 4.87574138,0.376431034 C5.30056897,0.275051724 5.73987931,0.240051724 6.17556897,0.270224138 C8.24539655,0.411431034 9.96401724,1.92125862 10.3695345,3.95608621 C10.4226379,4.22281034 10.4516034,4.49436207 10.4588448,4.76712069 C10.4588448,4.84677586 10.4588448,4.84677586 10.3779828,4.84677586 L9.89763793,4.84677586 Z M16.9229828,5.52384483 L33.0483276,5.52384483 C33.4538448,5.50332759 33.7990172,5.8135 33.8231552,6.21781034 L33.8231552,11.3109138 C33.8303966,11.5522931 33.720569,11.7803966 33.5286724,11.9252241 C33.4067759,12.0193621 33.2559138,12.0700517 33.1026379,12.0676379 L0.789189655,12.0676379 C0.500741379,12.0809138 0.232810345,11.9240172 0.102465517,11.6669483 C0.102465517,11.6669483 0.102465517,11.5969483 0.0312586207,11.5872931 C-0.0399482759,11.5776379 0.0312586207,11.5872931 0.0312586207,11.5426379 C0.0312586207,11.4979828 0.00470689655,11.3109138 0.00470689655,11.3109138 L0.00470689655,6.32522414 C-0.0146034483,6.08987931 0.0771206897,5.85815517 0.254534483,5.70125862 C0.382465517,5.58298276 0.551431034,5.51660345 0.726431034,5.51418966 L16.9229828,5.51418966 L16.9229828,5.52384483 Z" id="Fill-1" fill="#58585A" fill-rule="nonzero" mask="url(#mask-2)"></path>
                        </g>
                    </g>
                </g>
                <path d="M9.31012069,10.1926276 L9.31012069,11.5817655 L9.26546552,11.5817655 L8.55339655,11.5817655 C8.55339655,11.5817655 8.5002931,11.5817655 8.50874138,11.5274552 L8.50874138,8.8578 C8.50874138,8.73228276 8.50874138,8.75038621 8.40132759,8.75038621 L7.51063793,8.75038621 C7.51063793,8.75038621 7.46718966,8.75038621 7.46718966,8.70573103 L7.46718966,8.09986897 C7.46718966,8.09986897 7.46718966,8.05521379 7.51063793,8.09986897 L10.1827069,8.09986897 C10.2442586,8.09986897 10.2442586,8.09986897 10.2442586,8.17107586 L10.2442586,8.69728276 C10.2442586,8.76848966 10.2442586,8.76848966 10.1646034,8.76848966 L9.27391379,8.76848966 C9.27391379,8.76848966 9.23046552,8.76848966 9.27391379,8.81193793 L9.27391379,8.87469655 C9.31012069,9.3115931 9.31012069,9.75693793 9.31012069,10.2010759 L9.31012069,10.1926276 Z M4.69736207,9.84504138 L4.69736207,8.18073103 C4.69736207,8.06486897 4.69736207,8.07331724 4.80477586,8.07331724 L7.03994828,8.07331724 C7.14615517,8.07331724 7.1377069,8.07331724 7.1377069,8.17107586 L7.1377069,8.69728276 C7.1377069,8.76848966 7.1377069,8.76848966 7.0665,8.76848966 L5.55184483,8.76848966 C5.55184483,8.76848966 5.49874138,8.76848966 5.49874138,8.8215931 L5.49874138,9.20417931 L5.49874138,9.48055862 C5.49874138,9.57831724 5.49874138,9.54211034 5.5615,9.53366207 L7.01218966,9.53366207 C7.01218966,9.53366207 7.0665,9.53366207 7.0665,9.57831724 L7.0665,10.1841793 C7.0665,10.1841793 7.0665,10.2288345 7.01218966,10.2288345 L5.54339655,10.2288345 L5.54339655,11.5202138 C5.54339655,11.5202138 5.54339655,11.5817655 5.48908621,11.5817655 L4.77822414,11.5817655 C4.69736207,11.5817655 4.70701724,11.5817655 4.70701724,11.5105586 L4.70701724,9.85469655 L4.69736207,9.84504138 Z M1.37598276,9.84504138 L1.37598276,8.18917931 C1.37839655,8.16866207 1.37839655,8.14814483 1.37598276,8.12762759 C1.37598276,8.08176552 1.37598276,8.07331724 1.43874138,8.07331724 L3.84287931,8.07331724 C3.94063793,8.07331724 3.93098276,8.07331724 3.93098276,8.16262759 L3.93098276,8.69728276 C3.93098276,8.76848966 3.93098276,8.76848966 3.85977586,8.76848966 L2.25822414,8.76848966 C2.17736207,8.76848966 2.17736207,8.76848966 2.17736207,8.84814483 L2.17736207,9.4178 C2.17736207,9.49866207 2.17736207,9.49866207 2.25822414,9.49866207 L3.72701724,9.49866207 L3.77167241,9.49866207 L3.77167241,10.0864207 C3.77167241,10.0864207 3.77167241,10.1395241 3.71856897,10.1395241 L2.22201724,10.1395241 L2.22201724,10.1841793 L2.22201724,10.7984897 C2.22201724,10.8696966 2.22201724,10.8696966 2.29322414,10.8696966 L3.89598276,10.8696966 C4.0202931,10.8696966 4.00339655,10.8696966 4.00339655,10.9759034 L4.00339655,11.4840069 C4.00339655,11.5733172 4.00339655,11.564869 3.92253448,11.564869 L1.4302931,11.564869 C1.4302931,11.564869 1.38563793,11.564869 1.4302931,11.5202138 L1.4302931,11.4574552 L1.4302931,9.79193793 L1.37598276,9.84504138 Z M11.5802931,6.99676552 C11.6092586,6.98711034 11.6406379,6.98711034 11.6696034,6.99676552 L33.0401207,6.99676552 C33.1620172,6.99073103 33.2658103,7.08607586 33.2718448,7.20917931 C33.2718448,7.21883448 33.2718448,7.22728276 33.2706379,7.23693793 L33.2706379,12.2588345 C33.2766724,12.3240069 33.2537414,12.3879724 33.2078793,12.4362483 C33.1777069,12.4676276 33.1366724,12.485731 33.0932241,12.4893517 L11.7227069,12.4893517 C11.5899483,12.4893517 11.6068448,12.4893517 11.6068448,12.3746966 L11.6068448,7.29004138 C11.6104655,7.19107586 11.6020172,7.09211034 11.5802931,6.99676552 Z" id="Fill-4" fill="#FFFFFF" fill-rule="nonzero"></path>
                <path d="M21.4727414,10.4778172 L21.9530862,10.9666103 L21.9530862,11.029369 C21.6561897,11.3769552 21.2410172,11.6026448 20.7872241,11.6617828 C20.3744655,11.7124724 19.9556724,11.6279897 19.5936034,11.4216103 C19.1023966,11.1548862 18.7717069,10.6673 18.7041207,10.1121276 C18.6377414,9.75126552 18.6811897,9.37954138 18.828431,9.04402414 C19.0710172,8.45747241 19.6056724,8.0435069 20.2356724,7.95781724 C20.8946379,7.83471379 21.5692931,8.06402414 22.0158448,8.56367931 L22.0158448,8.64333448 L21.5620517,9.15988621 L21.3749828,9.06212759 C20.9718793,8.6360931 20.3141207,8.57816207 19.843431,8.92816207 C19.6068793,9.11040345 19.4632586,9.38798966 19.4511897,9.68488621 C19.4306724,9.90212759 19.4705,10.1217828 19.5670517,10.3173 C19.7299828,10.6636793 20.0763621,10.8857483 20.4577414,10.8869552 C20.8101552,10.8978172 21.1468793,10.7469552 21.3749828,10.4778172 L21.4196379,10.4247138 L21.4727414,10.4778172 Z M13.7172241,7.93971379 C14.1758448,7.94092069 14.6211897,8.08816207 14.9905,8.3585069 C15.0798103,8.42005862 15.0617069,8.41161034 14.9905,8.48281724 L14.687569,8.91971379 C14.6344655,8.99936897 14.6344655,8.99936897 14.5548103,8.91971379 C14.3737759,8.78936897 14.1673966,8.69885172 13.9489483,8.65178276 C13.8029138,8.61798966 13.6508448,8.61798966 13.5036034,8.65178276 C13.3986034,8.67471379 13.3117069,8.74833448 13.2718793,8.8485069 C13.2055,8.9885069 13.2610172,9.15626552 13.3973966,9.2310931 C13.4613621,9.2685069 13.5301552,9.29867931 13.6013621,9.32040345 C13.7618793,9.3735069 13.9308448,9.41816207 14.0913621,9.46281724 C14.2844655,9.5123 14.4703276,9.58712759 14.6429138,9.68488621 C14.9929138,9.87074828 15.1920517,10.2533345 15.1413621,10.6467828 C15.1015345,11.1307483 14.7322241,11.5217828 14.2518793,11.5905759 C13.7280862,11.7221276 13.1753276,11.6424724 12.7106724,11.3673 C12.5755,11.2876448 12.447569,11.1947138 12.3280862,11.0921276 C12.2749828,11.0474724 12.2749828,11.0474724 12.3280862,10.994369 L12.7287759,10.504369 C12.7287759,10.4597138 12.7287759,10.4597138 12.8180862,10.504369 C12.9967069,10.6612655 13.1982586,10.7904034 13.4142931,10.8869552 C13.5808448,10.9557483 13.7606724,10.9847138 13.9405,10.9666103 C14.0020517,10.9605759 14.0623966,10.9424724 14.1179138,10.9135069 C14.2760172,10.8326448 14.337569,10.6395414 14.2567069,10.4826448 C14.2253276,10.4235069 14.1770517,10.375231 14.1179138,10.3438517 C14.0105,10.2883345 13.8970517,10.2473 13.7799828,10.2195414 C13.5832586,10.1664379 13.3877414,10.1217828 13.2006724,10.0505759 L12.8892931,9.90816207 C12.6286034,9.77902414 12.4560172,9.52195517 12.4355,9.2310931 C12.4137759,9.08988621 12.4137759,8.94505862 12.4355,8.80385172 C12.4765345,8.58661034 12.5972241,8.3935069 12.773431,8.26074828 C12.9786034,8.10867931 13.2223966,8.01574828 13.4770517,7.99281724 L13.7172241,7.93971379 Z M22.4068793,9.17798966 L22.4068793,8.08212759 C22.4068793,8.02057586 22.4068793,8.02057586 22.4696379,8.02057586 L23.1563621,8.02057586 L23.1563621,9.94316207 C23.1479138,10.1205759 23.1780862,10.2967828 23.2456724,10.4597138 C23.3229138,10.6624724 23.4967069,10.8121276 23.7079138,10.8604034 C24.0591207,10.9654034 24.4296379,10.7723 24.5455,10.4247138 C24.5998103,10.2823 24.6263621,10.1314379 24.6251552,9.97936897 L24.6251552,8.12678276 C24.6251552,8.01092069 24.6251552,8.02902414 24.7229138,8.02057586 L25.3649828,8.02057586 C25.4253528,8.02057586 25.4253528,8.02057586 25.4253276,8.09057586 L25.4253276,10.1398862 C25.4265345,10.3559207 25.3842931,10.5707483 25.3022241,10.7710931 C25.1429138,11.1585069 24.8158448,11.4517828 24.4115345,11.5640241 C24.0699828,11.6750586 23.7018793,11.6750586 23.3603276,11.5640241 C22.8763621,11.4010931 22.5227414,10.9823 22.4442931,10.4778172 C22.4298103,10.3414379 22.4298103,10.2038517 22.4442931,10.0686793 C22.4068793,9.7560931 22.4068793,9.46281724 22.4068793,9.16954138 L22.4068793,9.17798966 Z M29.7267069,9.81885172 L29.7267069,8.12678276 C29.7267069,8.02057586 29.7267069,8.03867931 29.8160172,8.03867931 L32.2467069,8.03867931 C32.2467069,8.03867931 32.3010172,8.03867931 32.3010172,8.09057586 L32.3010172,8.7060931 C32.3010172,8.75919655 32.3010172,8.75919655 32.2382586,8.75919655 L30.5992931,8.75919655 C30.5280862,8.75919655 30.5280862,8.75919655 30.5280862,8.83040345 L30.5280862,9.41816207 C30.5280862,9.48936897 30.5280862,9.48936897 30.5992931,9.48936897 L32.0596379,9.48936897 C32.1851552,9.48936897 32.1658448,9.48936897 32.1658448,9.59678276 L32.1658448,10.095231 C32.1658448,10.1833345 32.1658448,10.1833345 32.0777414,10.1833345 L30.5823966,10.1833345 C30.5196379,10.1833345 30.5196379,10.1833345 30.5196379,10.2460931 L30.5196379,10.8519552 C30.5196379,10.9231621 30.5196379,10.9231621 30.5908448,10.9231621 L32.3010172,10.9231621 C32.3010172,10.9231621 32.3541207,10.9231621 32.3541207,10.9762655 L32.3541207,11.5821276 C32.3541207,11.5821276 32.3541207,11.635231 32.3010172,11.635231 L29.8256724,11.635231 C29.7182586,11.635231 29.7182586,11.635231 29.7182586,11.5374724 L29.7182586,9.81040345 L29.7267069,9.81885172 Z M15.6591207,9.81885172 L15.6591207,8.10988621 C15.6591207,8.02057586 15.6591207,8.02902414 15.7472241,8.02902414 L18.1863621,8.02902414 C18.1863621,8.02902414 18.2491207,8.02902414 18.2491207,8.08212759 L18.2491207,8.47436897 L18.2491207,8.69643793 L18.2491207,8.7410931 L16.5220517,8.7410931 C16.4773966,8.7410931 16.4689483,8.7410931 16.4689483,8.80385172 L16.4689483,9.40971379 C16.4689483,9.47971379 16.4689483,9.47971379 16.5486034,9.47971379 L17.9908448,9.47971379 C18.0620517,9.47971379 18.0620517,9.47971379 18.0620517,9.55092069 L18.0620517,10.0855759 C18.0620517,10.1664379 18.0620517,10.1664379 17.9823966,10.1664379 L16.6017069,10.1664379 C16.4605,10.1664379 16.4605,10.1664379 16.4605,10.3004034 L16.4605,10.8060931 C16.4605,10.8966103 16.4605,10.8966103 16.5486034,10.8966103 L18.2406724,10.8966103 C18.2406724,10.8966103 18.303431,10.8966103 18.303431,10.9497138 L18.303431,11.5555759 C18.303431,11.5555759 18.303431,11.6086793 18.2491207,11.6086793 L15.7387759,11.6086793 C15.667569,11.6086793 15.667569,11.6086793 15.667569,11.5374724 L15.667569,9.81040345 L15.6591207,9.81885172 Z M28.3737759,10.3269552 L29.2644655,11.5905759 L29.1920517,11.5905759 L28.3653276,11.5905759 C28.3170517,11.5941966 28.2723966,11.5688517 28.2482586,11.5278172 L27.5458448,10.5128172 C27.5180862,10.4657483 27.4661897,10.4379897 27.4118793,10.4416103 L27.0111897,10.4416103 C26.9399828,10.4416103 26.9399828,10.4416103 26.9399828,10.5128172 L26.9399828,11.4928172 C26.9399828,11.5905759 26.9399828,11.5821276 26.8506724,11.5821276 L26.2194655,11.5821276 C26.1386034,11.5821276 26.1386034,11.5821276 26.1386034,11.5024724 L26.1386034,8.11833448 C26.1386034,8.01092069 26.1386034,8.02057586 26.2363621,8.02057586 L27.6073966,8.02057586 C27.8487759,8.01936897 28.0877414,8.05195517 28.3206724,8.11833448 C28.617569,8.18592069 28.8589483,8.40074828 28.9615345,8.68798966 C28.9953276,8.77971379 29.0194655,8.87505862 29.0327414,8.97281724 C29.0773966,9.1985069 29.0773966,9.43264483 29.0327414,9.65833448 C28.9591207,9.94195517 28.7587759,10.1760931 28.488431,10.2907483 L28.4087759,10.2907483 L28.3737759,10.3269552 Z" id="Fill-6" fill="#0F75BD" fill-rule="nonzero"></path>
                <path d="M26.9485517,9.24026552 L26.9485517,8.77681724 C26.9485517,8.71405862 26.9485517,8.71405862 27.0209655,8.71405862 L27.6075172,8.71405862 C27.7052759,8.70198966 27.8042414,8.70198966 27.902,8.71405862 C28.0601034,8.74543793 28.1795862,8.87578276 28.1952759,9.0350931 C28.2206207,9.14974828 28.2206207,9.26802414 28.1952759,9.38267931 C28.1663103,9.52992069 28.0552759,9.64698966 27.9104483,9.68561034 C27.8030345,9.71578276 27.692,9.73026552 27.5809655,9.73026552 L27.0113103,9.73026552 C26.9401034,9.73026552 26.9401034,9.73026552 26.9401034,9.65905862 C26.9401034,9.58785172 26.9485517,9.39112759 26.9485517,9.24026552" id="Fill-8" fill="#FFFFFF"></path>
            </g>
        </g>
    </g>
</svg>

<svg width="38" height="24" viewBox="0 0 38 24" aria-labelledby="pi-eft_secure" version="1.1" xmlns="http://www.w3.org/2000/svg" xmlns:xlink="http://www.w3.org/1999/xlink"><title id="pi-eft_secure">EFT Secure</title><defs><path id="path-1" d="M0 .26h33.823v11.808H0z"/></defs><g id="Page-1" stroke="none" stroke-width="1" fill="none" fill-rule="evenodd"><g id="eft-secure"><path d="M35 0H3C1.3 0 0 1.3 0 3v18c0 1.7 1.4 3 3 3h32c1.7 0 3-1.3 3-3V3c0-1.7-1.4-3-3-3z" id="Path" fill="#000" opacity=".07"/><path d="M35 1c1.1 0 2 .9 2 2v18c0 1.1-.9 2-2 2H3c-1.1 0-2-.9-2-2V3c0-1.1.9-2 2-2h32" id="Path" fill="#FFF"/><g id="eft_secure" transform="translate(2 4)"><g id="Group-3" transform="translate(0 .947)"><g id="Fill-1-Clipped"><mask id="mask-2" fill="#fff"><use xlink:href="#path-1"/></mask><path d="M9.898 4.847h-.499c-.071 0-.071 0-.071-.071a3.216 3.216 0 0 0-.303-1.336 3.387 3.387 0 0 0-2.467-1.977 3.446 3.446 0 0 0-4.14 3.33s0 .062-.062.062H1.34c-.053 0-.053 0-.053-.061.006-.203.024-.405.053-.606a4.33 4.33 0 0 1 .525-1.514A4.564 4.564 0 0 1 4.876.376a4.32 4.32 0 0 1 1.3-.106 4.595 4.595 0 0 1 4.283 4.497c0 .08 0 .08-.081.08h-.48zm7.025.677h16.125c.406-.02.751.29.775.694v5.093a.74.74 0 0 1-.294.614.682.682 0 0 1-.426.143H.789a.732.732 0 0 1-.687-.401s0-.07-.07-.08c-.072-.01 0 0 0-.044 0-.045-.027-.232-.027-.232V6.325a.75.75 0 0 1 .721-.81h16.197v.009z" id="Fill-1" fill="#58585A" fill-rule="nonzero" mask="url(#mask-2)"/></g></g><path d="M9.31 10.193v1.389h-.757s-.053 0-.044-.055v-2.67c0-.125 0-.107-.108-.107h-.89s-.044 0-.044-.044V8.1s0-.045.044 0h2.672c.061 0 .061 0 .061.071v.526c0 .071 0 .071-.08.071h-.89s-.044 0 0 .044v.063c.036.437.036.882.036 1.326v-.008zm-4.613-.348V8.181c0-.116 0-.108.108-.108H7.04c.106 0 .098 0 .098.098v.526c0 .071 0 .071-.072.071H5.552s-.053 0-.053.054v.659c0 .097 0 .061.063.053h1.45s.054 0 .054.044v.606s0 .045-.054.045H5.543v1.291s0 .062-.054.062h-.71c-.082 0-.072 0-.072-.071V9.855l-.01-.01zm-3.321 0V8.189a.263.263 0 0 0 0-.061c0-.046 0-.055.063-.055h2.404c.098 0 .088 0 .088.09v.534c0 .071 0 .071-.071.071H2.258c-.08 0-.08 0-.08.08v.57c0 .08 0 .08.08.08h1.514v.588s0 .054-.053.054H2.222v.658c0 .072 0 .072.071.072h1.603c.124 0 .107 0 .107.106v.508c0 .09 0 .08-.08.08H1.43s-.044 0 0-.044V9.792l-.054.053zM11.58 6.997c.03-.01.06-.01.09 0h21.37a.222.222 0 0 1 .232.212l-.001.028v5.022a.227.227 0 0 1-.063.177.179.179 0 0 1-.115.053h-21.37c-.133 0-.116 0-.116-.114V7.29a1.135 1.135 0 0 0-.027-.293z" id="Fill-4" fill="#FFF" fill-rule="nonzero"/><path d="M21.473 10.478l.48.489v.062a1.847 1.847 0 0 1-1.166.633 1.935 1.935 0 0 1-1.193-.24 1.726 1.726 0 0 1-.89-1.31 1.832 1.832 0 0 1 .124-1.068c.243-.587.778-1 1.408-1.086a1.915 1.915 0 0 1 1.78.606v.08l-.454.516-.187-.098a1.157 1.157 0 0 0-1.532-.134c-.236.182-.38.46-.392.757-.02.217.02.437.116.632.163.347.51.569.89.57.353.01.69-.14.918-.41l.045-.052.053.053zM13.717 7.94c.459 0 .904.148 1.274.419.089.061.07.053 0 .124l-.303.437c-.054.08-.054.08-.133 0a1.62 1.62 0 0 0-.606-.268.99.99 0 0 0-.445 0 .324.324 0 0 0-.232.197.294.294 0 0 0 .125.382.96.96 0 0 0 .204.09c.16.053.33.097.49.142.193.05.38.124.552.222.35.186.55.568.498.962a1.04 1.04 0 0 1-.89.944 2.044 2.044 0 0 1-1.54-.224 2.67 2.67 0 0 1-.383-.275c-.053-.045-.053-.045 0-.098l.4-.49c0-.044 0-.044.09 0 .179.157.38.286.596.383.167.069.347.098.527.08a.487.487 0 0 0 .177-.053.32.32 0 0 0 0-.57 1.476 1.476 0 0 0-.338-.124c-.197-.054-.392-.098-.58-.17l-.31-.142a.82.82 0 0 1-.455-.677 1.409 1.409 0 0 1 0-.427.886.886 0 0 1 .338-.543c.206-.152.45-.245.704-.268l.24-.053zm8.69 1.238V8.082c0-.061 0-.061.063-.061h.686v1.922c-.008.178.022.354.09.517a.648.648 0 0 0 .462.4.678.678 0 0 0 .838-.435c.054-.143.08-.294.08-.446V8.127c0-.116 0-.098.097-.106h.642c.06 0 .06 0 .06.07v2.049c.002.216-.04.43-.123.631-.16.388-.486.68-.89.793a1.7 1.7 0 0 1-1.052 0 1.369 1.369 0 0 1-.916-1.086 1.932 1.932 0 0 1 0-.41c-.037-.312-.037-.605-.037-.898v.008zm7.32.64V8.128c0-.106 0-.088.089-.088h2.43s.055 0 .055.052v.615c0 .053 0 .053-.063.053H30.6c-.07 0-.07 0-.07.071v.588c0 .071 0 .071.07.071h1.46c.126 0 .107 0 .107.108v.498c0 .088 0 .088-.088.088h-1.496c-.062 0-.062 0-.062.063v.606c0 .071 0 .071.07.071h1.711s.053 0 .053.053v.606s0 .053-.053.053h-2.475c-.108 0-.108 0-.108-.098V9.81l.009.009zm-14.068 0V8.11c0-.09 0-.081.088-.081h2.44s.062 0 .062.053v.659h-1.727c-.045 0-.053 0-.053.063v.606c0 .07 0 .07.08.07h1.442c.071 0 .071 0 .071.07v.536c0 .08 0 .08-.08.08h-1.38c-.142 0-.142 0-.142.134v.506c0 .09 0 .09.089.09h1.692s.062 0 .062.054v.606s0 .053-.054.053h-2.51c-.071 0-.071 0-.071-.072V9.81l-.009.009zm12.715.509l.89 1.264H28.365a.125.125 0 0 1-.117-.063l-.702-1.015a.145.145 0 0 0-.134-.071h-.4c-.072 0-.072 0-.072.07v.98c0 .099 0 .09-.09.09h-.63c-.081 0-.081 0-.081-.08V8.118c0-.107 0-.097.097-.097h1.371c.242-.002.48.031.714.097a.89.89 0 0 1 .64.57c.034.092.058.187.072.285.044.226.044.46 0 .685a.944.944 0 0 1-.545.633h-.08l-.034.036z" id="Fill-6" fill="#0F75BD" fill-rule="nonzero"/><path d="M26.949 9.24v-.463c0-.063 0-.063.072-.063h.587c.097-.012.196-.012.294 0a.365.365 0 0 1 .293.321.804.804 0 0 1 0 .348.393.393 0 0 1-.285.303c-.107.03-.218.044-.329.044h-.57c-.07 0-.07 0-.07-.07 0-.072.008-.269.008-.42" id="Fill-8" fill="#FFF"/></g></g></g></svg>
